X: 43497
T: Yellow Wattle, The
R: jig
M: 6/8
K: Dmixolydian
|:dcA AGE|ABA ABc|dcA ABc|dcA GED|
dcA AGE|ABA AGE|DED cde|dcA GED:|
|:DED c3|ded ccd|DED cde|dcA GED|
DED c3|ded d2B|ABA ABc|dcA GED:|

